X: 35179
T: Rookland Lasses
R: jig
M: 6/8
K: Gmajor
|:E|DGG BAB|GBd gfg|dBG DGB|cAF DFA|DGG BAB|
GBd gfg|dBG DFA|1 BGG G2:|2 BGF G||
|:d/e/f|gGG fGG|eGG dGG|DGB dBG|FAA ABc|
dBG ecA|fdB gdB|cAF Ddc|1 BGF G:|2 BGG G2||

